static/images/game.svg

<svg height="100" viewBox="0 0 100 100" width="100" xmlns="http://www.w3.org/2000/svg" xmlns:xlink="http://www.w3.org/1999/xlink"><defs><circle id="a" cx="35" cy="35" r="35"/><filter id="b" height="174.3%" width="174.3%" x="-37.1%" y="-31.4%"><feOffset dx="0" dy="4" in="SourceAlpha" result="shadowOffsetOuter1"/><feGaussianBlur in="shadowOffsetOuter1" result="shadowBlurOuter1" stdDeviation="8"/><feColorMatrix in="shadowBlurOuter1" type="matrix" values="0 0 0 0 0.254901961   0 0 0 0 0.458823529   0 0 0 0 0.647058824  0 0 0 0.24 0"/></filter><linearGradient id="c" x1="0%" x2="149.460671%" y1="0%" y2="71.875%"><stop offset="0" stop-color="#00eaf8"/><stop offset="1" stop-color="#6d42ef"/></linearGradient></defs><g fill="none" fill-rule="evenodd" transform="translate(15 15)"><g fill-rule="nonzero"><use fill="#000" filter="url(#b)" xlink:href="#a"/><use fill="#fff" fill-rule="evenodd" xlink:href="#a"/></g><path d="m37.9109643 17.4768842c-.4639854.9250663-1.2484404 1.6351-2.208677 1.9994387-.9603928.3638647-2.0132859.350593-2.9643818-.037761-.9510179-.3882751-1.7176603-1.1177424-2.1594582-2.0554483l-1.7113321-3.6133673c-.1884379-.3979128-.5919545-.6388566-1.0281274-.6165792-.434376.0232254-.8089081.3059592-.9540647.7200666-.3413289.974361-1.2581279 1.6289382-2.2811772 1.6289382-1.1540651 0-2.1525831-.8294788-2.374068-1.9723424-.0987502-.5093-.542345-.8790105-1.0548462-.8790105h-2.3137554c-.5125011 0-.9560959.3697105-1.0548462.8791685-.2214848 1.1427846-1.2203934 1.9723424-2.3750836 1.9723424-1.0227367 0-1.9393795-.6544192-2.2810209-1.6284643-.1452347-.4142653-.5199231-.6967621-.9545335-.7199085-.4355479-.0236204-.8397676.2192194-1.027893.6174482l-1.70750396 3.6132093c-.88945519 1.8879725-3.45946116 2.8654144-5.5000909 2.0917873-1.86594184-.7079008-2.73836574-2.7566343-2.12180181-4.9822442l2.55149031-9.21298059c.37421961-1.35205031 1.26203418-2.44656722 2.50008393-3.08186892.70125163-.35991477 1.45390962-.54121512 2.21086451-.54121512.57953259 0 1.16187772.10625228 1.72555092.3198628.9375021.35580687 1.7326602.98012785 2.2993803 1.80557767.3085945.44926147.8179706.71745959 1.3625032.71745959h11.0630725c.5444544 0 1.0535962-.26796112 1.3620344-.7169066.5676576-.82584482 1.3632063-1.45040279 2.3003179-1.80605167 1.2999249-.49278935 2.697975-.41426537 3.9364154.22119433 1.2381279.6353807 2.1260987 1.72989761 2.5003183 3.08202692l2.5514122 9.21266459c.2765631.9988504.1731254 2.0581342-.290782 2.9829635m1.8760981-3.431514c.3876572 1.4011871.242735 2.887139-.4079696 4.1845227-.6508609 1.2976207-1.7513322 2.2937061-3.0986791 2.804902-1.3476594.5108009-2.8244597.4920784-4.1587597-.0527706-1.3341437-.5446911-2.409615-1.5680308-3.0283664-2.8814511l-1.2272685-2.5912125c-.7542205 1.0226287-1.9567233 1.6573775-3.262195 1.6573775-1.7789104 0-3.3378203-1.1737519-3.8708684-2.8514319h-1.4299252c-.5331262 1.67768-2.0924267 2.8514319-3.8718059 2.8514319-1.3046124 0-2.5067245-.6340378-3.2611013-1.6559556l-1.2241435 2.5906596c-.9612522 2.0404386-3.21414805 3.3063811-5.49259084 3.3064601-.70039226 0-1.40289389-.1196029-2.07133294-.3730284-2.65586554-1.0076981-3.97164985-3.9471337-3.12875727-6.9895037l2.55141218-9.21290157c.49257927-1.77998233 1.7100821-3.28070683 3.34016401-4.11729536 1.63023816-.83674653 3.54735199-.94426278 5.25938726-.29561042 1.252581.47533081 2.3152397 1.31033938 3.0736008 2.41481004l-.0000781-.00007899c.0003125 0 .0038281.00244893.0104688.00244893h11.0631507c.0073438 0 .0109375-.00292292.0109375-.00292292.7585955-1.10407567 1.8215667-1.93900525 3.0732884-2.41402006 1.7119571-.64920535 3.6289928-.54137311 5.2593872.29529442s2.8479754 2.33739203 3.3405546 4.11753235zm-8.8010737-10.10171941c-.6223017 0-1.1267631.50447922-1.1267631 1.12680289 0 .62223901.5044614 1.12671824 1.1267631 1.12671824.6223018 0 1.1267632-.50447923 1.1267632-1.12671824 0-.62232367-.5044614-1.12680289-1.1267632-1.12680289zm0 5.07042253c-.6223396 0-1.1267631.50442238-1.1267631 1.12676058 0 .6222535.5044235 1.1267606 1.1267631 1.1267606.6223397 0 1.1267632-.5045071 1.1267632-1.1267606 0-.6223382-.5044235-1.12676058-1.1267632-1.12676058zm-2.8169092-2.25350994c-.6223396 0-1.1267632.50442237-1.1267632 1.12676056 0 .62225355.5044236 1.12676057 1.1267632 1.12676057s1.1267632-.50450702 1.1267632-1.12676057c0-.62233819-.5044236-1.12676056-1.1267632-1.12676056zm5.6337749-.00001118c-.6222316 0-1.1267209.50442237-1.1267209 1.12676056 0 .62225354.5044893 1.12676056 1.1267209 1.12676056.6223162 0 1.1268055-.50450702 1.1268055-1.12676056 0-.62233819-.5044893-1.12676056-1.1268055-1.12676056zm-22.2302424.02328803h-1.4550302v-1.45502677c0-.45391094-.36795028-.82178239-.82178427-.82178239s-.8217843.36787145-.8217843.82178239v1.45502677h-1.45503015c-.45383399 0-.8217843.36787145-.8217843.82178239 0 .45383293.36795031.82170439.8217843.82170439h1.45503015v1.45510477c0 .45383292.36795031.82178242.8217843.82178242s.82178427-.3679495.82178427-.82178242v-1.45510477h1.4550302c.453834 0 .8217843-.36787146.8217843-.82170439 0-.45391094-.3679503-.82178239-.8217843-.82178239zm6.6718852.54009225h-.9959516c-.5028156 0-.9104782.37831431-.9104782.84511053 0 .466716.4076626.84503031.9104782.84503031h.9959516c.5028156 0 .9104782-.37831431.9104782-.84503031 0-.46679622-.4076626-.84511053-.9104782-.84511053zm5.4175309.84507042c0-.46669385-.4076626-.84507042-.9104782-.84507042h-.9959516c-.5028156 0-.9104782.37837657-.9104782.84507042s.4076626.84507042.9104782.84507042h.9959516c.5028156 0 .9104782-.37837657.9104782-.84507042z" fill="url(#c)" transform="translate(15 24)"/></g></svg>

<?xml version="1.0" encoding="UTF-8"?>
<svg width="100px" height="100px" viewBox="0 0 100 100" version="1.1" xmlns="http://www.w3.org/2000/svg" xmlns:xlink="http://www.w3.org/1999/xlink">
    <!-- Generator: sketchtool 46.2 (44496) - http://www.bohemiancoding.com/sketch -->
    <title>0604419A-C8AF-4585-B671-F674003102FE</title>
    <desc>Created with sketchtool.</desc>
    <defs>
        <circle id="path-1" cx="35" cy="35" r="35"></circle>
        <filter x="-37.1%" y="-31.4%" width="174.3%" height="174.3%" filterUnits="objectBoundingBox" id="filter-2">
            <feOffset dx="0" dy="4" in="SourceAlpha" result="shadowOffsetOuter1"></feOffset>
            <feGaussianBlur stdDeviation="8" in="shadowOffsetOuter1" result="shadowBlurOuter1"></feGaussianBlur>
            <feColorMatrix values="0 0 0 0 0.254901961   0 0 0 0 0.458823529   0 0 0 0 0.647058824  0 0 0 0.24 0" type="matrix" in="shadowBlurOuter1"></feColorMatrix>
        </filter>
        <linearGradient x1="0%" y1="0%" x2="149.460671%" y2="71.875%" id="linearGradient-3">
            <stop stop-color="#00EAF8" offset="0%"></stop>
            <stop stop-color="#6D42EF" offset="100%"></stop>
        </linearGradient>
    </defs>
    <g id="Symbols" stroke="none" stroke-width="1" fill="none" fill-rule="evenodd">
        <g id="ic/game">
            <g id="Group-2" transform="translate(15.000000, 15.000000)">
                <g id="Oval" fill-rule="nonzero">
                    <use fill="black" fill-opacity="1" filter="url(#filter-2)" xlink:href="#path-1"></use>
                    <use fill="#FFFFFF" fill-rule="evenodd" xlink:href="#path-1"></use>
                </g>
                <g id="Page-1" transform="translate(15.000000, 24.000000)" fill="url(#linearGradient-3)">
                    <g id="Group">
                        <path d="M37.9109643,17.4768842 C37.4469789,18.4019505 36.6625239,19.1119842 35.7022873,19.4763229 C34.7418945,19.8401876 33.6890014,19.8269159 32.7379055,19.4385619 C31.7868876,19.0502868 31.0202452,18.3208195 30.5784473,17.3831136 L28.8671152,13.7697463 C28.6786773,13.3718335 28.2751607,13.1308897 27.8389878,13.1531671 C27.4046118,13.1763925 27.0300797,13.4591263 26.8849231,13.8732337 C26.5435942,14.8475947 25.6267952,15.5021719 24.6037459,15.5021719 C23.4496808,15.5021719 22.4511628,14.6726931 22.2296779,13.5298295 C22.1309277,13.0205295 21.6873329,12.650819 21.1748317,12.650819 L18.8610763,12.650819 C18.3485752,12.650819 17.9049804,13.0205295 17.8062301,13.5299875 C17.5847453,14.6727721 16.5858367,15.5023299 15.4311465,15.5023299 C14.4084098,15.5023299 13.491767,14.8479107 13.1501256,13.8738656 C13.0048909,13.4596003 12.6302025,13.1771035 12.1955921,13.1539571 C11.7600442,13.1303367 11.3558245,13.3731765 11.1676991,13.7714053 L9.46019514,17.3846146 C8.57073995,19.2725871 6.00073398,20.250029 3.96010424,19.4764019 C2.0941624,18.7685011 1.2217385,16.7197676 1.83830243,14.4941577 L4.38979274,5.28117711 C4.76401235,3.9291268 5.65182692,2.83460989 6.88987667,2.19930819 C7.5911283,1.83939342 8.34378629,1.65809307 9.10074118,1.65809307 C9.68027377,1.65809307 10.2626189,1.76434535 10.8262921,1.97795587 C11.7637942,2.33376274 12.5589523,2.95808372 13.1256724,3.78353354 C13.4342669,4.23279501 13.943643,4.50099313 14.4881756,4.50099313 L25.5512481,4.50099313 C26.0957025,4.50099313 26.6048443,4.23303201 26.9132825,3.78408653 C27.4809401,2.95824171 28.2764888,2.33368374 29.2136004,1.97803486 C30.5135253,1.48524551 31.9115754,1.56376949 33.1500158,2.19922919 C34.3881437,2.83460989 35.2761145,3.9291268 35.6503341,5.28125611 L38.2017463,14.4939207 C38.4783094,15.4927711 38.3748717,16.5520549 37.9109643,17.4768842 M39.7870624,14.0453702 C40.1747196,15.4465573 40.0297974,16.9325092 39.3790928,18.2298929 C38.7282319,19.5275136 37.6277606,20.523599 36.2804137,21.0347949 C34.9327543,21.5455958 33.455954,21.5268733 32.121654,20.9820243 C30.7875103,20.4373332 29.712039,19.4139935 29.0932876,18.1005732 L27.8660191,15.5093607 C27.1117986,16.5319894 25.9092958,17.1667382 24.6038241,17.1667382 C22.8249137,17.1667382 21.2660038,15.9929863 20.7329557,14.3153063 L19.3030305,14.3153063 C18.7699043,15.9929863 17.2106038,17.1667382 15.4312246,17.1667382 C14.1266122,17.1667382 12.9245001,16.5327004 12.1701233,15.5107826 L10.9459798,18.1014422 C9.9847276,20.1418808 7.73183175,21.4078233 5.45338896,21.4079023 C4.7529967,21.4079023 4.05049507,21.2882994 3.38205602,21.0348739 C0.726190476,20.0271758 -0.58959383,17.0877402 0.253298753,14.0453702 L2.80471093,4.83246863 C3.2972902,3.0524863 4.51479303,1.5517618 6.14487494,0.715173267 C7.7751131,-0.121573264 9.69222693,-0.229089505 11.4042622,0.419562852 C12.6568432,0.894893656 13.7195019,1.72990223 14.477863,2.83437289 L14.4777849,2.8342939 C14.4780974,2.8342939 14.481613,2.83674283 14.4882537,2.83674283 L25.5514044,2.83674283 C25.5587482,2.83674283 25.5623419,2.83381991 25.5623419,2.83381991 C26.3209374,1.72974424 27.3839086,0.894814658 28.6356303,0.419799846 C30.3475874,-0.229405497 32.2646231,-0.121573264 33.8950175,0.715094269 C35.5254119,1.5517618 36.7429929,3.0524863 37.2355721,4.83262662 L39.7870624,14.0453702 Z M30.9859887,3.94365079 C30.363687,3.94365079 29.8592256,4.44813001 29.8592256,5.07045368 C29.8592256,5.69269269 30.363687,6.19717192 30.9859887,6.19717192 C31.6082905,6.19717192 32.1127519,5.69269269 32.1127519,5.07045368 C32.1127519,4.44813001 31.6082905,3.94365079 30.9859887,3.94365079 Z M30.9859887,9.01407332 C30.3636491,9.01407332 29.8592256,9.5184957 29.8592256,10.1408339 C29.8592256,10.7630874 30.3636491,11.2675945 30.9859887,11.2675945 C31.6083284,11.2675945 32.1127519,10.7630874 32.1127519,10.1408339 C32.1127519,9.5184957 31.6083284,9.01407332 30.9859887,9.01407332 Z M28.1690795,6.76056338 C27.5467399,6.76056338 27.0423163,7.26498575 27.0423163,7.88732394 C27.0423163,8.50957749 27.5467399,9.01408451 28.1690795,9.01408451 C28.7914191,9.01408451 29.2958427,8.50957749 29.2958427,7.88732394 C29.2958427,7.26498575 28.7914191,6.76056338 28.1690795,6.76056338 Z M33.8028544,6.7605522 C33.1806228,6.7605522 32.6761335,7.26497457 32.6761335,7.88731276 C32.6761335,8.5095663 33.1806228,9.01407332 33.8028544,9.01407332 C34.4251706,9.01407332 34.9296599,8.5095663 34.9296599,7.88731276 C34.9296599,7.26497457 34.4251706,6.7605522 33.8028544,6.7605522 Z M11.572612,6.78384023 L10.1175818,6.78384023 L10.1175818,5.32881346 C10.1175818,4.87490252 9.74963152,4.50703107 9.29579753,4.50703107 C8.84196354,4.50703107 8.47401323,4.87490252 8.47401323,5.32881346 L8.47401323,6.78384023 L7.01898308,6.78384023 C6.56514909,6.78384023 6.19719878,7.15171168 6.19719878,7.60562262 C6.19719878,8.05945555 6.56514909,8.42732701 7.01898308,8.42732701 L8.47401323,8.42732701 L8.47401323,9.88243178 C8.47401323,10.3362647 8.84196354,10.7042142 9.29579753,10.7042142 C9.74963152,10.7042142 10.1175818,10.3362647 10.1175818,9.88243178 L10.1175818,8.42732701 L11.572612,8.42732701 C12.026446,8.42732701 12.3943963,8.05945555 12.3943963,7.60562262 C12.3943963,7.15171168 12.026446,6.78384023 11.572612,6.78384023 Z M18.2444972,7.32393248 L17.2485456,7.32393248 C16.74573,7.32393248 16.3380674,7.70224679 16.3380674,8.16904301 C16.3380674,8.63575901 16.74573,9.01407332 17.2485456,9.01407332 L18.2444972,9.01407332 C18.7473128,9.01407332 19.1549754,8.63575901 19.1549754,8.16904301 C19.1549754,7.70224679 18.7473128,7.32393248 18.2444972,7.32393248 Z M23.6620281,8.1690029 C23.6620281,7.70230905 23.2543655,7.32393248 22.7515499,7.32393248 L21.7555983,7.32393248 C21.2527827,7.32393248 20.8451201,7.70230905 20.8451201,8.1690029 C20.8451201,8.63569675 21.2527827,9.01407332 21.7555983,9.01407332 L22.7515499,9.01407332 C23.2543655,9.01407332 23.6620281,8.63569675 23.6620281,8.1690029 Z" id="Combined-Shape"></path>
                    </g>
                </g>
            </g>
        </g>
    </g>
</svg>
